X:1
T:O Bone Jesu
T:Lassus
T:O Bone Jesu
T:Copyright © 2014 by CPDL.  This edition can be fully distributed, duplicated, performed, and recorded 
T:Copyright © 2014 by CPDL.  This edition can be fully distributed, duplicated, performed, and recorded 
T:Copyright © 2014 by CPDL.  This edition can be fully distributed, duplicated, performed, and recorded 
T:Copyright © 2014 by CPDL.  This edition can be fully distributed, duplicated, performed, and recorded 
T:Copyright © 2014 by CPDL.  This edition can be fully distributed, duplicated, performed, and recorded 
T:Copyright © 2014 by CPDL.  This edition can be fully distributed, duplicated, performed, and recorded 
T:Copyright © 2014 by CPDL.  This edition can be fully distributed, duplicated, performed, and recorded 
T:Copyright © 2014 by CPDL.  This edition can be fully distributed, duplicated, performed, and recorded 
T:Copyright © 2014 by CPDL.  This edition can be fully distributed, duplicated, performed, and recorded 
T:Copyright © 2014 by CPDL.  This edition can be fully distributed, duplicated, performed, and recorded 
T:Copyright © 2014 by CPDL.  This edition can be fully distributed, duplicated, performed, and recorded 
T:Copyright © 2014 by CPDL.  This edition can be fully distributed, duplicated, performed, and recorded 
T:Copyright © 2014 by CPDL.  This edition can be fully distributed, duplicated, performed, and recorded 
T:Copyright © 2014 by CPDL.  This edition can be fully distributed, duplicated, performed, and recorded 
T:Copyright © 2014 by CPDL.  This edition can be fully distributed, duplicated, performed, and recorded 
T:Copyright © 2014 by CPDL.  This edition can be fully distributed, duplicated, performed, and recorded 
T:Copyright © 2014 by CPDL.  This edition can be fully distributed, duplicated, performed, and recorded 
T:Copyright © 2014 by CPDL.  This edition can be fully distributed, duplicated, performed, and recorded 
T:Copyright © 2014 by CPDL.  This edition can be fully distributed, duplicated, performed, and recorded 
T:Copyright © 2014 by CPDL.  This edition can be fully distributed, duplicated, performed, and recorded 
T:Copyright © 2014 by CPDL.  This edition can be fully distributed, duplicated, performed, and recorded 
T:Copyright © 2014 by CPDL.  This edition can be fully distributed, duplicated, performed, and recorded 
T:Copyright © 2014 by CPDL.  This edition can be fully distributed, duplicated, performed, and recorded 
T:Copyright © 2014 by CPDL.  This edition can be fully distributed, duplicated, performed, and recorded 
T:Copyright © 2014 by CPDL.  This edition can be fully distributed, duplicated, performed, and recorded 
T:Copyright © 2014 by CPDL.  This edition can be fully distributed, duplicated, performed, and recorded 
T:Copyright © 2014 by CPDL.  This edition can be fully distributed, duplicated, performed, and recorded 
T:Copyright © 2014 by CPDL.  This edition can be fully distributed, duplicated, performed, and recorded 
T:Copyright © 2014 by CPDL.  This edition can be fully distributed, duplicated, performed, and recorded 
T:Copyright © 2014 by CPDL.  This edition can be fully distributed, duplicated, performed, and recorded 
T:Copyright © 2014 by CPDL.  This edition can be fully distributed, duplicated, performed, and recorded 
T:Copyright © 2014 by CPDL.  This edition can be fully distributed, duplicated, performed, and recorded 
T:Copyright © 2014 by CPDL.  This edition can be fully distributed, duplicated, performed, and recorded 
T:Copyright © 2014 by CPDL.  This edition can be fully distributed, duplicated, performed, and recorded 
C:Lassus
Z:Copyright © 2014 by CPDL.  This edition can be fully distributed, duplicated, performed, and recorded
%%score [ 1 2 3 4 ]
L:1/8
Q:1/2=92
M:4/2
K:F
V:1 treble nm="Soprano" snm="S."
V:2 treble nm="Alto" snm="A."
V:3 treble-8 transpose=-12 nm="Tenor" snm="T."
V:4 bass nm="Bass" snm="B."
V:1
"^Part One:  O good, most sweet Jesus, Son of the Virgin Mary, full of mercy and truth, have mercy on me according to your great compassion.O kind Jesus,  I entreat thee for your most precious blood, which you deigned to shed upon the altar of the cross for us miserable sinners,to remove all my sins. Do not despise the humble penitent who calls upon your most holy name, the most sweet and wholesome name;for who is Jesus, if not the savior?O good Jesus, who created me out of nothing, and redeemed me by your own blood, do not allow my perdition. By your omnipotent goodness do not punish me; recognize in me that which is yours, and wipe out that which is foreign to me.Have mercy on me while mercy is at hand; do not condemn me in the hour of your awesome judgment.""^PRIMA PARS" G12 G4- | %1
w: O bo-|
 (G4 ^F2 E2 F8) | (G6 A2 B4) c4- | c4 B6 AG A4 | B8 F8- | F8 E4 E4- | E4 E4 F4 A4- | %7
w: |ne _ _ Je-||su, O|_ pi- is-|* si- me Je-|
 (A2 GF G4) A8- | A8 c8- | c4 c4 =B4 B4 | =B8 c8 | F8 z4 B4- | (B2 AG A4) F4 D4 | d12 c4 | %14
w: * * * * su,|_ O|_ dul- cis- si-|me Je-|su, O|_ _ _ _ Je- su|fi- li|
 A4 (d6 cB c4) | B4 A8 F4 | E8 F8 | F4 F4 G4 G4 | G6 G2 G4 d4- | d2 cB A2 B2 c4 B4- | B4 A8 G4- | %21
w: Ma- ri- * * *|ae vir- gi-|nis, ple-|nus mi- se- ri-|cor- di- a et|_ _ _ _ _ _ ve-|* ri- ta-|
 (G2 ^FE F4) G8 | z4 G8 G4- | G4 (c6 BA B4) | A8 A4 A4- | A4 A4 B8- | (B4 A2 G2 A4) A4 | G16 | %28
w: * * * * te,|O dul-|* cis _ _ _|Je- su mi-|* se- re-|* * * * re|me-|
 ^F4 F4 G4 A4 | B8 B8 | A8 G4 F4 | E4 F4 A4 B4- | (B2 AG A4) B8 | d8 c4 F4- | F4 F4 _E8 | %35
w: i se- cun- dum|ma- gnam|mi- se- ri-|cor- di- am tu-|* * * * am.|O be- ni-|* gne Je-|
 D8 z4 B4 | A4 B8 A2 G2 | A2 D2 d6 ^c=B c4 | d8 z4 d4 | (B6 c2 d4) c4 | d4 B4 A4 D2 E2 | %41
w: su te|de- pre- * *||cor per|il- * * lum|san- gui- nem tu- *|
 F2 G2 A2 B2 c4 F4 | F4 B4 A2 D2 G4- | G2 F2 F2 ED E8 | D8 G8 | G4 G8 F4 | G4 A4 B8 | z16 | %48
w: * * * * * um|pre- ti- o- * *||sum quam|pro no- bis|mi- se- ris||
 z4 A4 B6 B2 | F4 F4 D6 D2 | E8 E8 | F4 A4 (A6 G2 | F2 E2 F4) E8 | z16 | z16 | z16 | z16 | %57
w: ef- fun- de-|re di- gna- tus|es in|a- ra cru- *|* * * cis|||||
 z4 d4 B8 | A8 z4 G4 | A4 B4 c4 A4 | B6 B2 A4 c4- | c4 A8 B4- | (B2 AG A4) B8 | z16 | z16 | %65
w: et ne|me di-|spi- ci- as hu-|mi- li- ter te|_ pen- ten-|* * * * tem|||
 A8 d6 d2 | c4 _e8 d4 | c4 B8 A4- | A2 G2 G6 ^FE F4 | G8 z4 A4 | c4 A4 G8 | A4 A8 B4 | A12 F4- | %73
w: san- ctis- si-|mum Je- sus|in- vo- can-||tem, Hoc|no- men Je-|sus no- men|dul- ce|
 F4 G6 FE F4 | E8 z4 E4 | G4 G4 B2 A2 A2 GF | G8 E8 | F8 D4 B4 | B4 (d6 c2 B4-) | B4 A4 (B6 AG | %80
w: _ _ _ _ _|est, hoc|no- men Je- * * * *|* sus|no- men sa-|lu- ta- * *|* re est, _ _|
 F8) G8 | F4 G4 A4 B4- | (B2 AG A4) B8 | (B8 A8) | G4 A4 G8 | ^F8 z4 A4 | B4 c4 A8 | G8 z4 G4 | %88
w: _ quid|e- nim est Je-|* * * * sus|ni- *|si Sal- va-|tor? O|bo- ne Je-|su, qui|
 A4 B4 (c2 A2 d4) | G8 z4 E4- | E4 F4 G4 A4- | A2 G2 G6 ^FE F4 | G4 E8 G4 | =F6 F2 F4 F4- | %94
w: me cre- a- * *|sti, et|_ re- de- mi-||sti tu- o|pro- pri- o san-|
 F4 _E4 D8 | A8 ^F4 G4- | G4 E4 (c6 B2 | A4) c4 B2 A2 A4- | A2 GF G4 A8 | z16 | z16 | z8 z4 d4- | %102
w: * gui- ne,|ne per- mit-|* tas me _|_ da- mna- * *|* * * * re,|||O|
 d4 c8 B4 | (A8 G8) | F8 z8 | d8 c4 B4 | A4 (G6 ^FE F4) | G8 z8 | z8 A8 | d6 d2 A4 A4- | %110
w: _ bo- ne|Je- *|su,|i- ni- qui-|tas me- * * *|a|o-|mni- po- tens bo-|
 A4 G4 c4 B4- | B2 A2 G6 ^FE F4 | D4 D4 E8 | F8 G8- | G4 ^F4 z8 | z16 | z16 | z8 z4 F4- | %118
w: * ni- tas tu-||a. O bo-|ne Je-|* su,|||et|
 F4 G4 A4 F4 | G6 A2 B2 A2 d4- | d2 c2 B2 A2 G4 F4 | G4 d6 cB c2 G2 | B4 A4 D4 d4- | %123
w: _ ab- ster- ge|quod _ _ _ _|_ _ _ _ _ a-|li- e- * * * *|* num est a|
 d2 c2 c2 BA B8 | A16 | z4 D4 (F4 E2 D2 | F4) E8 D4- | (D2 ^C=B, C4) D4 d4- | d4 c4 B4 A4 | %129
w: _ _ _ _ _ _|me,|O bo- * *|* ne Je-|* * * * su, mi-|* se- re- re|
 G8 ^F4 F4 | G4 A4 B4 F4- | F4 F4 D8 | D4 D4 B8- | B8 B8 | G12 G4 | A6 A2 d4 D4 | _E8 D4 d4- | %137
w: me- i dum|tem- pus est mi-|* se- ren-|di, ne per-|* das|me in|tem- po- re tre-|men- di ju-|
 d4 (B6 A2 G4-) | G4 F4 B8 | A16 | A16 |] %141
w: * di- * *|* ci- i|tu-|i.|
"^Part Two:  O good Jesus, if I, a miserable sinner, merit eternal punishment for my most grave sins,I call and rely upon your ineffable mercy of a devoted father and  merciful Lord.For what profit is there in my blood, if I go down to the eternal pit; for it is not the dead that shall praise thee, O Lord, neither those that descend into hell.""^SECUNDA PARS" z8 A8 | %142
w: O|
 c12 d4 | c8 A8- | A4 d4 =B4 B4 | =B8 c8 | F4 G4 (F4 E2 D2 | E8) F8 | z4 B4 G8 | G4 A8 A4 | %150
w: bo- ne|Je- su,|_ si me- ru-|i mi-|ser pec- ca- * *|* tor|de ve-|ra tu- a|
 d8 B6 B2 | A16 | z4 d8 c4- | c4 B8 A4- | (A2 GF G4) A8 | E8 F8 | (G8 A8) | D4 (F8 E2 D2 | %158
w: ju- sti- ti-|a|poe- nam|_ ae- ter-|* * * * nam|pro pec-|ca- *|tis me- * *|
 E4) E4 (F6 G2 | A2 B2 A4) B8- | B4 F4 G8 | B8 G4 B4 | A8 G8 | z4 B4 A8 | G4 G4 B6 AG | %165
w: * is gra- *|* * * vis-|* si- mis,|ad- huc ap-|pel- lo|con- fi-|sus de tu- * *|
 F2 G2 A2 B2 c4 A4 | d8 c6 c2 | B4 (A8 G4) | A16 | z4 F4 B8 | G8 z4 d4 | _e4 B4 c4 G4 | c4 A8 G4 | %173
w: * * * * * a|ju- sti- ti-|a ve- *|ra|ad tu-|am mi-|se- ri- cor- di|am in- ef-|
 F4 E4 E8 | A8 D4 D4- | D4 _E4 D4 B4- | B4 G4 G4 B4- | (B2 c2 d4) A8 | z4 A4 (F6 E2 | %179
w: fa- bi- lem|u- ti- que|_ mi- se- re-|* be- ris me-|* * * i|ut pi- *|
 F4) E4 (D6 E2 | F4) E4 c4 c4 | A6 A2 A8 | d4 c4 =B8- | B8 z8 | z4 G4 c4 A4 | B8 A8 | z16 | z16 | %188
w: * us pa- *|* ter et mi-|se- ri- cors|do- mi- nus.|_|O bo- ne|Je- su,|||
 z8 z4 A4- | A4 F4 F6 F2 | D8 z4 D4 | B4 B8 G4 | B8 A4 D2 E2 | F2 G2 A2 B2 c4 B4- | (B2 AG A4) B8 | %195
w: dum|_ de- scen- de-|ro in|cor- ru- pti-|o- nem ae- *|* * * * * ter-|* * * * nam,|
 z4 F4 G8 | B4 G8 G4 | ^F8 z4 G4 | A4 E4 A2 G2 F2 E2 | F2 C2 c4 B6 B2 | A4 d8 B4 | %201
w: non e-|nim mor- tu-|i lau-|da- bant et _ _ _|_ _ _ Do- mi-|ne ne- que|
 c4 A4 B2 A2 d4- | d4 c4 B8- | B4 A4 G8 | F16 | _E16 | D16 |] %207
w: o- mnes qui _ _|_ de- scen-|* dunt in|in-|fer-|num.|
"^Part Three:  Have mercy on me, a sinner; count me among your elect.  O Jesus, health of the trusting, hope of the faithful, remove all my sins, fill my heart with gratitude, hope, charity, chastity, humility, and holy patience in the face of adversity,that I may perfectly love you, and glory in you for all eternity. Amen.""^TERTIA PARS" ^F12 G4 | %208
w: O mi-|
 A4 B4 c4 d4- | d2 d2 B4 (A8 | G8) A4 B4- | B4 A4 F4 F4 | _E8 D4 D4- | D4 D4 _E4 E4 | _E8 D8- | %215
w: se- ri- cor- dis-|* si- me Je-|* su mi-|* se- re- re|me- i. O|_ dul- cis- si-|me Je-|
 D8 ^C8 | D8 =E4 F4 | F8 F8 | D4 D8 D4 | E8 G8 | ^F8 z4 A4 | B6 B2 B4 G4- | G4 F4 G4 A4 | F8 G8 | %224
w: * su|li- be- ra|me. O|pi- is- si-|me Je-|su, pro-|pi- ti- us e-|* sto mi- hi|pec- ca-|
 A8 D4 D4 | G12 G4 | z4 d4 =B8 | c4 G4 A6 A2 | A4 F4 F4 D2 E2 | F2 D2 B2 A2 G2 F2 F2 ED | %230
w: to- ri. O|Je- su,|ad- mit-|te me mi- se-|rum pec- ca- to- *||
 E8 D4 B4 | G4 A4 B4 G4 | A4 d8 c4 | B4 A6 G2 G4- | G2 ^FE F4 G8 | z4 A4 B8 | A4 d6 d2 B4- | %237
w: * rem in|nu- me- rum e-|le- cto- rum|tu- o- * *|* * * * rum.|O Je-|su, sa- lus in|
 B4 G8 F4 | D6 D2 F8- | F16 | z4 B4 d6 c2 | B2 A2 d6 c2 B4- | B4 A4 F8 | (G6 A2 B4) A4 | c8 A4 G4 | %245
w: _ te spe-|ran- ti- um.|_|O Je- *||* su, spes|in _ _ te|cre- den- ti-|
 E8 E8 | ^F4 G8 F4 | G8 E8 | z4 F4 c8 | d8 G8 | G4 B4 F6 F2 | F4 B8 A4 | A4 B8 A4- | %253
w: um mi-|se- re- re|me- i.|O Je-|su dul-|cis, re- mis- si-|o o- mni-|um pec- ca-|
 A4 (G6 FE F4) | B8 G8 | F16 | A16 | z4 A4 A4 A4 | =B8 c8 | A6 A2 B4 A4 | (d8 _e8) | d8 z8 | %262
w: * to- * * *|rum me-|o-|rum.|O Je- su,|fi- li|Vir- gi- nis Ma-|ri- *|ae,|
 F8 G4 A4 | (B6 A2 G4) ^F4 | G6 G2 A4 A4 | G4 A8 A4 | A8 ^F8 | A4 B6 AG F2 G2 | E8 D4 F4- | %269
w: in- fun- de|in _ _ me|gra- ti- am, sa-|pi- en- ti-|am, ca-|ri- ta- * * * *|* tem, ca-|
 F4 F4 A8- | A8 ^G8 | z4 A8 d4 | ^c4 d4 D8 | D8 z4 F4 | (A6 G2 F4) E4 | A8 c8 | B4 A4 G4 G4 | %277
w: * sti- ta-|* tem|et hu-|mi- li- ta-|tem ac|e- * * ti-|am in|o- mni- bus ad-|
 c12 B4 | A12 G4 | F8 B6 A2 | B2 A2 A6 GF G4 | A8 A8- | A4 G2 F2 E8 | C4 (c8 B2 A2 | G4) A4 B8 | %285
w: ver- si-|ta- ti-|bus me- *||is pa-||ti- en- * *|* ti- am|
 G8 ^F8 | z4 ^F4 G4 B4- | (B2 AG A4) (B6 AG | F8) z8 | z16 | E8 ^F4 G4 | A8 G4 B4- | %292
w: san- ctam,|ut pos- sim|_ _ _ _ te, _ _|_||et in te|glo- ri- a-|
 (B2 AG A4) B4 F4 | G4 B4 A2 G2 G4- | G2 ^FE F4 G4 D4 | =F4 A4 (G2 F2 E2 D2 | E8) D4 F4 | %297
w: * * * * ri ac|de- le- cta- * *|* * * * ri, ac|de- le- cta- * * *|* ri, ac|
 G4 B4 A2 G2 G4- | G2 ^FE F4 G8 ||[M:3/1][Q:1/4=120] E8 F12 D4 | F8 G12 F4 | _E8 D16 | ^F8 G12 E4 | %303
w: de- le- cta- * *|* * * * ri,|in sae- cu-|la sae- cu-|lo- rum,|in sae- cu-|
 G8 A12 G4 | F8 E16 | G8 G12 F4 | G8 B12 A4 | G8 ^F16 ||[M:4/2][Q:1/2=80] (G2 A2 B2 c2 d4) (G2 A2 | %309
w: la sae- cu-|lo- rum,|in sae- cu-|la sae- cu-|lo- rum.|A- * * * * men, _|
 B2 c2 d8) c4- | (c4 =B2 A2) B8- | B16 |] %312
w: _ _ _ a-|* * * men.|_|
V:2
 D16 | D16 | (D8 G8) | F16 | F8 D8- | D8 ^C4 C4- | C4 ^C4 D4 F4- | (F4 E2 D2 F4) E4 | z4 F8 C4 | %9
w: O|bo-|ne _|Je-|su, O|_ pi- is-|* si- me Je-|* * * * su,|O dul-|
 _E4 E4 D8- | D8 _E8 | D8 D8 | C8 D4 G,2 A,2 | B,2 C2 D2 E2 F4 E4 | F8 G4 G4- | G4 F8 D4 | %16
w: cis- si- me|_ Je-|su, O|Je- su fi- *|* * * * * li|Ma- ri- ae|_ vir- gi-|
 ^C8 z4 D4- | D4 D4 _E4 E4 | _E4 E6 D2 D2 CB, | A,4 D4 C4 F4 | F4 F4 D8 | D16 | D8 E8- | %23
w: nis, ple-|* nus mi- se-|ri- cor- * * * *|* di- a et|ve- ri- ta-|te,|O dul-|
 E8 G4 G4- | (G2 FE F4) E8 | F12 G4 | F12 F4 | _E2 D2 D6 CB, C4 | D4 D8 F4- | F2 F2 F4 G8 | %30
w: * cis Je-|* * * * su|mi- se-|re- re|me- * * * * *|i se- cun-|* dum ma- gnam|
 F8 E4 D4 | ^C4 D4 F8 | F8 D8 | F8 _E4 D4- | D4 C4 C8 | =B,8 z4 D4- | D4 D4 (D6 E2 | F8) E8 | %38
w: mi- se- ri-|cor- di- am|tu- am.|O be- ni-|* gne Je-|su te|_ de- pre- *|* cor|
 z4 D4 (B,6 C2 | D2 _E2 D4) B,4 F4- | F2 F2 F4 F8 | D4 C2 B,2 A,2 B,2 C4 | D8 F4 _E4- | %43
w: per il- *|* * * lum san-|* gui- nem tu-|um _ _ _ _ _|pre- ti- o-|
 E2 D2 D6 ^C=B, C4 | D8 D8 | G,8 D4 D4 | _E6 E2 D4 D4 | C4 D8 G,4 | C4 C4 D6 D2 | D4 D4 B,4 A,4 | %50
w: |sum quam|pro no- bis|mi- se- ris pec-|ca- to- ri-|bus ef- fun- de-|re di- gna- tus|
 (C6 B,2 A,4) G,4 | A,4 F4 E8 | D8 z4 A,4 | D8 C4 B,4 | A,4 D8 D4 | F8 D4 _E4 | C4 D4 B,8 | %57
w: es _ _ in|a- ra cru-|cis ut|ab- ji- ci-|as o- mnes|i- ni- qui-|ta- tes me-|
 A,8 z4 D4 | F8 E8 | z4 D4 E4 F4 | G4 D4 F6 F2 | E4 F4 D8 | C8 B,8 | z16 | z16 | F8 F6 F2 | %66
w: as, et|ne me|di- spi- ci-|as hu- mi- li-|ter te pen-|ten- tem|||san- ctis- si-|
 F4 G8 F4 | _E4 D4 D8 | B,6 C2 D8 | =E8 z4 F4 | G4 F4 E8 | F16 | F8 E4 D4 | D16 | ^C8 z4 =C4 | %75
w: mum Je- sus|in- vo- can-||tem, Hoc|no- men Je-|sus|no- men dul-|ce|est, hoc|
 D4 E4 F8 | E8 C8 | A,4 A,4 B,4 D4- | D2 C2 B,2 C2 D6 E2 | F4 F4 D8- | D8 z4 C4 | D4 E4 F8 | %82
w: no- men Je-|sus no-|men sa- lu- ta-||* re est,|_ quid|e- nim est|
 F8 G8 | G8 F8 | E4 (F6 ED E4) | D4 D4 E4 =F4 | (G8 F8) | D4 D8 E4 | F4 G6 F2 F4- | %89
w: Je- sus|ni- si|Sal- va- * * *|tor? O bo- ne|Je- *|su, qui me|cre- a- * *|
 F2 ED E2 F2 G8 | C4 C4 D4 F4- | (F2 D2 _E4) D8 | =B,4 C8 C4 | C6 C2 C4 D4- | D4 C4 A,8 | %95
w: |sti, et re- de-|* * * mi-|sti tu- o|pro- pri- o san-|* gui- ne,|
 z4 D8 =B,4 | C8 A,4 F4- | F4 E4 (D6 C2 | B,8) A,8 | z16 | z16 | z8 (D6 E2 | F4) E4 F4 G4- | %103
w: ne per-|mit- tas me|_ da- mna- *|* re,|||O _|_ bo- ne Je-|
 G2 F2 F6 ED E4 | F8 z8 | z4 F8 D4- | D2 D2 B,4 A,8 | G,8 z8 | z8 z4 F4- | F4 F8 F4 | E4 E6 E2 G4 | %111
w: |su,|i- ni-|* qui- tas me-|a|o-|* mni- po-|tens bo- ni- tas|
 F4 D4 z4 D4 | =B,8 (C6 _B,2 | A,4) B,8 G,4 | z4 D8 _E4 | D8 D4 D4 | D8 F8- | F4 D4 C8 | D16 | %119
w: tu- a. O|bo- ne _|_ Je- su,|re- co-|gno- sce quod|tu- um|_ est in|me.|
 z16 | z16 | z16 | z16 | z8 z4 D4 | (F6 E2 D2 C2 D4) | B,2 A,2 A,6 G,F, G,4 | (C8 A,8) | A,8 F8 | %128
w: ||||O|bo- * * * *|ne _ _ _ _ _|Je- *|su, mi-|
 F4 _E4 D4 D4- | (D2 CB, C4) D4 D4 | E4 F4 F4 D4- | D4 C4 B,8 | A,8 z4 D4 | G8 G8 | D4 _E4 D8- | %135
w: se- re- re me-|* * * * i dum|tem- pus est mi-|* se- ren-|di, ne|per- das|me in tem-|
 D4 A,4 B,4 B,4- | B,4 (C6 B,A, B,4) | A,4 D4 B,4 C4 | D16 | D16 | ^C16 |] D12 F4- | F4 E4 F8- | %143
w: * po- re tre-|* men- * * *|di ju- di- ci-|i|tu-|i.|O bo-|* ne Je-|
 F4 E4 z4 F4 | D4 D4 D8- | D4 E8 F4 | D4 _E6 D2 D4- | D2 ^C=B, C4 D8- | D8 z4 _E4 | C8 F4 F4- | %150
w: * su, si|me- ru- i|_ mi- ser|pec- ca- * *|* * * * tor|_ de|ve- ra tu-|
 F4 B,4 D4 G4- | G4 ^F4 F8 | G8 _E8 | D8 D8- | D8 C8- | C8 z4 D4- | D4 E8 F4- | (F4 E2 D2 C4) D4- | %158
w: * a ju- sti-|* ti- a|poe- nam|ae- ter-|* nam|_ pro|_ pec- ca-|* * * * tis|
 (D2 CB, C4) A,4 B,4 | F8 D4 G,4 | B,8 z4 B,4- | B,4 G,4 B,4 F4- | F4 C4 z4 _E4- | E4 D8 C4 | %164
w: _ _ _ _ me- is|gra- vis- si-|mis, ad-|* huc ap- pel-|* lo con-|* fi- sus|
 C4 _E6 DC B,2 C2 | D2 =E2 F6 E2 F4 | B,4 D4 E4 F4 | D8 B,8 | A,4 F,4 F8 | D8 z4 D4 | %170
w: de tu- * * * *||a ju- sti- ti-|a ve-|ra ad tu-|am mi-|
 _E4 B,4 C4 G,4 | G8 F4 =E4- | E4 (F6 E2 D4-) | D4 ^C4 C8 | z4 F8 B,4 | B,12 D4 | G,4 C8 G4 | %177
w: se- ri- cor- di|am in- ef-|* fa- * *|* bi- lem|u- ti-|que mi-|se- re- be-|
 G4 (F6 E2 F2 D2 | E4) F4 D4 C4 | A,4 (C6 =B,A, B,4) | C8 z4 F,4 | F4 E6 E2 F4 | B,4 C4 D4 D4 | %183
w: ris me- * * *|* i ut pi-|us pa- * * *|ter et|mi- se- ri- cors|do- mi- nus. O|
 G8 E4 F4- | F4 D4 z4 C4 | G4 D4 F8 | D6 D2 E4 F4- | F4 D6 D2 B,4 | F8 E8 | z4 D8 B,4 | %190
w: bo- ne Je-|* su, quae|e- nim u-|ti- li- tas in|_ san- gui- ne|me- o|dum de-|
 B,6 B,2 G,8 | z4 D4 _E4 E4- | E4 D4 F8 | B,4 F4 _E8 | C8 z4 B,4 | D8 _E8 | z4 B,8 B,4 | %197
w: scen- de- ro|in cor- ru-|* pti- o-|nem ae- ter-|nam, non|e- nim|mor- tu-|
 A,8 z4 B,4 | C4 C4 F4 (B,2 C2 | D2 E2 F8) E4 | F8 G8 | E4 F4 F4 (B,2 C2 | D2 E2 F8) _E4 | %203
w: i lau-|da- bant et Do- *|* * * mi-|ne ne-|que o- mnes qui _|_ _ _ de-|
 D4 C6 B,A, G,2 A,2 | B,4 (A,8 G,2 F,2 | G,4) G,4 C8 | =B,16 |] D8 D4 D4- | D2 D2 D4 E4 F4 | %209
w: scen- dunt _ _ _ _|_ in _ _|_ in- fer-|num.|O mi- se-|* ri- cor- dis- si-|
 F4 G6 F2 F4- | F2 ED E4 F8 | F6 F2 D4 C4 | C8 A,8 | B,8 G,4 B,4- | B,4 B,4 (B,6 A,G, | %215
w: me Je- * *|* * * * su|mi- se- re- re|me- i.|O dul- cis-|* si- me _ _|
 F,4) G,4 A,4 A,4- | A,4 B,4 C8 | D8 D8 | =B,4 B,8 B,4 | C8 D8 | D8 z4 ^F4 | G6 G2 G4 D4- | %222
w: _ Je- su li-|* be- ra|me. O|pi- is- si-|me Je-|su, pro-|pi- ti- us e-|
 D4 D4 =E4 F4 | C4 D4 (D8 | C8) =B,8 | z4 =B,4 C8 | =B,8 z4 G4 | E8 F4 C4 | D6 D2 D4 B,4 | %229
w: * sto mi- hi|pec- ca- to-|* ri.|O Je-|su, ad-|mit- te me|mi- se- rum pec-|
 B,4 G,2 A,2 B,2 A,2 D4- | D2 ^C=B, C4 D8 | z4 F4 D4 E4 | F8 F4 F4 | D4 F4 _E8 | D8 D8- | %235
w: ca- to- * * * *|* * * * rem|in nu- me-|rum e- le-|cto- rum tu-|o- rum.|
 D8 z4 G4 | ^F8 G8 | G,8 B,4 A,4 | B,4 G,4 C6 C2 | D8 z4 B,4 | (D6 E2 F4) B,4 | %241
w: _ O|Je- su,|sa- lus in|te spe- ran- ti-|um. O|Je- * * su,|
 z4 A,4 (B,2 C2 D2 B,2 | C8) D4 D4- | D4 E4 F8- | F4 E4 F4 D4 | ^C8 C8 | D8 D4 D4 | =B,8 C8- | %248
w: O Je- * * *|* su, spes|_ in te|_ cre- den- ti-|um mi-|se- re- re|me- i.|
 C8 z4 C4 | F4 F4 _E8 | _E4 E4 D4 C4 | D4 F8 F4 | F8 F8- | F4 D4 (D6 E2 | F2 G2 F8) E4 | D8 C8 | %256
w: _ O|Je- su dul-|cis, re- mis- si-|o o- mni-|um pec-|* ca- to- *|* * * rum|me- o-|
 E8 z4 F4 | E8 ^F8 | G12 C4 | F6 F2 F4 F,4- | F,4 (B,6 A,G, A,4) | B,4 F4 D4 C4 | D8 D4 F4 | %263
w: rum. O|Je- su,|fi- li|Vir- gi- nis Ma-|* ri- * * *|ae, in- fun- de|in me, in-|
 D4 B,4 C4 D4 | D4 =E4 F8 | z4 F4 E4 F4- | F4 E4 D8 | D8 _E4 D4- | (D2 ^C=B, C4) D8 | D12 =C4 | %270
w: fun- de in me|gra- ti- am,|sa- pi- en-|* ti- am,|ca- ri- ta-|* * * * tem,|ca- sti-|
 D8 E8 | E8 F8 | E4 A,4 B,8 | B,4 B,4 (D6 E2 | F4) C4 C8 | C4 F6 E2 E2 DC | D6 D2 E8 | z4 C4 F8- | %278
w: ta- tem|et hu-|mi- li- ta-|tem ac e- *|* ti- am|in o- * * * *|* mni- bus|ad- ver-|
 F4 E4 D8- | D4 C4 D4 F4- | F2 E2 E2 DC D8 | E4 F8 E2 D2 | C12 B,2 A,2 | G,4 A,4 D8- | %284
w: * si- ta-|* ti- bus me-||is pa- * *||* ti- en-|
 D4 C4 _E4 D4- | (D2 CB, C4) D8 | z4 D4 _E8 | C8 B,8 | z16 | z8 z4 D4- | (D2 ^C=B, C4) D4 E4 | %291
w: * ti- am san-|* * * * ctam,|ut pos-|sim te,||et|_ _ _ _ in te|
 F8 D8 | (F6 _E2 D8) | C4 F4 _E4 C4 | D8 =B,4 B,4 | D4 F4 =E2 D2 D4- | D2 CB, C4 (F6 ED | %297
w: glo- ri-|a- * *|ri ac de- le-|cta- ri, ac|de- le- cta- * *|* * * * ri, _ _|
 C4) F4 _E4 C4 | D8 =B,8 ||[M:3/1] C8 C12 B,4 | C8 _E12 D4 | C8 =B,16 | D8 D12 C4 | D8 F12 E4 | %304
w: _ ac de- le-|cta- ri,|in sae- cu-|la sae- cu-|lo- rum,|in sae- cu-|la sae- cu-|
 D8 ^C16 | D8 E12 D4 | E8 F12 F4 | D8 D16 ||[M:4/2] z4 D6 C2 B,2 A,2 | G,8 _E8 | D16- | D16 |] %312
w: lo- rum,|in sae- cu-|la sae- cu-|lo- rum.|A- * * *|men, a-|men.|_|
V:3
 (G8 B8) | A16 | (B8 _e8) | (d8 c8) | d8 z4 B4- | B4 A4 A6 A2 | A16 | d8 c8- | c8 A8 | G12 G4- | %10
w: O *|bo-|ne _|Je- *|su, O|_ pi- is- si-|me|Je- su,|_ O|dul- cis-|
 G4 G4 G4 A4 | B8 F8- | F8 (B6 A2 | G4) B4 A8 | d4 B4 _e8 | d8 D6 D2 | A4 A8 A4 | B4 B8 B4 | %18
w: * si- me Je-|su, O|_ Je- *|* su fi-|li Ma- ri-|ae vir- gi-|nis, ple- nus|mi- se- ri-|
 c6 c2 (B6 AG | F4) (f6 e2 d4) | c4 c4 (B6 AG | A8) =B8- | B8 z4 c4 | G8 d8 | d8 ^c8 | d16 | %26
w: cor- di- a _ _|_ et _ _|ve- ri- ta- * *|* te,|_ O|dul- cis|Je- su|mi-|
 d8 =c4 d4 | (B6 A2 G8) | A4 A4 B4 c4 | d8 _e4 d4- | d4 c8 A4 | A6 A2 d8 | c8 B4 F4- | %33
w: se- re- re|me- * *|i se- cun- dum|ma- gnam mi-|* se- ri-|cor- di- am|tu- am. O|
 F4 B4 G4 B4 | (A8 G8) | G8 z4 G4 | ^F4 (G8 =F2 E2 | D8) A4 A4 | (B6 c2 d4) G4 | G12 A4 | %40
w: _ be- ni- gne|Je- *|su, te|de- pre- * *|* cor per|il- * * lum|san- gui-|
 B4 d6 c2 B4- | B4 A2 G2 F4 A4 | (B4 A2 G2 d4) c4 | B8 A8 | z4 B8 B4 | B4 c4 B4 A4 | c8 F8 | %47
w: nem tu- * *|* * * * um|pre- * * * ti-|o- sum|quam pro|no- bis mi- se-|ris pec-|
 F8 G4 E4 | E4 F4 F6 F2 | B4 A4 G4 F4 | G4 G4 c8 | c4 (d6 cB c4) | A4 A4 c8 | B4 A4 G4 F4- | %54
w: ca- to- ri-|bus ef- fun- de-|re di- gna- tus|es in a-|ra cru- * * *|cis ut ab-|ji- ci- as o-|
 F4 F4 B8- | B4 A8 B4 | G4 A8 G4- | (G2 ^FE F4) G8 | z16 | z16 | z16 | z16 | z8 z4 d4- | %63
w: * mnes i-|* ni- qui-|ta- tes me-|* * * * as,|||||et|
 d4 B4 (A6 B2 | c4) A4 d8 | c4 c4 B6 B2 | A4 B8 B4 | G8 F8 | (G8 A8) | c16- | c8 z4 c4 | c4 c4 d8 | %72
w: _ hoc no- *|* men tu-|um san- ctis- si-|mum Je- sus|in- vo-|can- *|tem,|_ Hoc|no- men Je-|
 d4 c8 A4 | B8 A8 | A8 z4 A4 | =B4 c4 d8 | (c6 BA G4) A4- | A4 F4 F4 F4 | (G6 A2 B8) | c8 F4 F4 | %80
w: sus no- men|dul- ce|est, hoc|no- men Je-|sus _ _ _ no-|* men sa- lu-|ta- * *|re est, quid|
 B12 A2 G2 | B2 A2 c4 c4 d4 | c8 _e4 e4- | e4 d8 c4 | c16 | A8 c8 | d4 _e4 c8 | =B16 | %88
w: e- * *|* * * nim est|Je- sus ni-|* si Sal-|va-|tor? O|bo- ne Je-|su,|
 z4 G4 A4 _B4 | c8 c8 | A8 B4 c4 | (d4 c2 B2 A8) | G8 G8 | A4 A6 A2 B4 | G6 G2 ^F8- | F8 z8 | z16 | %97
w: qui me cre-|a- sti,|et re- de-|mi- * * *|sti tu-|o pro- pri- o|san- gui- ne,|_||
 z16 | z8 F8 | A8 c6 F2 | F4 B4 A6 GF | B2 A2 A6 GF G4 | A8 z8 | z4 A4 B4 c4- | c2 B2 B6 AG A4 | %105
w: |quem|ex ni- hi-|lo cre- a- * *||sti,|ne per- dat|_ _ _ _ _ _|
 B8 z8 | z16 | z4 B8 A4- | A2 G2 A2 F2 c4 c4 | B4 d6 d2 A4 | c6 c2 G4 d4- | (d2 c2 B4) A8 | %112
w: me||quem fe-|* * * * * cit|o- mni- po- tens|bo- ni- tas tu-|* * * a.|
 z4 G8 A4- | (A2 D2 d8) c4 | B4 A4 B8 | A4 B8 G4 | F4 B8 A4 | c4 (B6 AG A4) | B8 z4 B4- | %119
w: O bo-|* * * ne|Je- su, re-|co- gno- sce|quod tu- um|est in _ _ _|me et|
 B4 c4 d4 B4 | (G6 A2 B2 c2 d4) | c4 B4 _e8 | (d6 c2 B8) | A8 G8 | d8 z4 D4 | (F6 E2 D8) | A8 (F8 | %127
w: _ ab- ster- ge|quod _ _ _ _|a- li- e-|num _ _|est a|me, O|bo- * *|ne Je-|
 E8) D4 B4- | B4 G4 G4 ^F4 | G8 A4 A4 | c6 c2 d4 A4 | B4 A6 G2 G4- | G2 ^FE F4 G8 | z4 G4 _e4 e4 | %134
w: * su, mi-|* se- re- re|me- i dum|tem- pus est mi-|se- ren- * *|* * * * di,|ne per- das|
 B12 B4 | F6 F2 F4 F4 | G8 G8 | F8 G6 G2 | B4 A8 G4- | G4 F2 E2 F8 | E16 |] z8 D8 | A12 B4 | %143
w: me in|tem- po- re tre-|men- di|ju- di- ci-|i tu- *||i.|O|bo- ne|
 A8 d8 | z4 B4 G4 G4 | G8 A8 | B8 B8 | A8 D4 B4 | G8 c8 | z4 (F6 D2 d4) | B4 G4 G6 G2 | d16 | %152
w: Je- su,|si me- ru-|i mi-|ser pec-|ca- tor de|ve- ra|tu- * *|a ju- sti- ti-|a|
 B8 G8- | G8 F8 | B8 F8 | z4 A8 B4- | B4 (c8 B2 A2 | B8) A8 | (A6 B2 c4) d4 | d8 G8- | G4 D4 _E8 | %161
w: poe- nam|_ ae-|ter- nam|pro pec-|* ca- * *|* tis|me- * * is|gra- vis-|* si- mis,|
 z4 _E8 D4- | D4 F4 c8 | G8 z8 | z16 | z16 | z16 | z16 | z8 z4 F4 | B8 G8 | z4 d4 _e4 B4 | %171
w: ad- huc|_ ap- pel-|lo|||||ad|tu- am|mi- se- ri-|
 c4 G4 A4 c2 B2 | A2 G2 F2 E2 D4 B4 | A6 A2 A8 | z4 d8 G4 | G8 G8 | _E4 _e8 e4 | %177
w: cor- di- am in- *|* * * * * ef-|fa- bi- lem|u- ti-|que mi-|se- re- be-|
 _e4 (B2 c2 d2 c2 d4) | A8 z4 A4 | D4 C4 G8 | A8 A8 | d4 ^c6 c2 d4 | G4 A4 G8 | z4 G4 c4 A4 | %184
w: ris me- * * * *|i ut|pi- us pa-|ter et|mi- se- ri- cors|do- mi- nus.|O bo- ne|
 B8 A8 | z4 G4 d4 A4 | B4 G6 G2 A4 | B8 G6 G2 | D4 (d6 ^c=B c4) | d8 z4 d4- | d4 B4 B6 B2 | G8 z8 | %192
w: Je- su,|quae e- nim|u- ti- li- tas|in san- gui-|ne me- * * *|o dum|_ de- scen- de-|ro|
 z16 | z16 | F8 G8 | B8 z4 _E4- | E4 _E4 D8- | D8 z4 G4 | F4 A4 D4 d2 c2 | B2 A2 A2 GF G6 G2 | %200
w: ||non e-|nim mor-|* tu- i|_ lau-|da- bant et Do- *|* * * * * * mi-|
 F4 B8 G4 | A4 D4 (d6 c2 | B4) A4 G8 | F8 _E8 | D16 | C16 | G16 |] A12 B4 | A4 G4 G4 B4- | %209
w: ne ne- que|o- mnes qui _|_ de- scen-|dunt in|in-|fer-|num.|O mi-|se- ri- cor- dis-|
 B4 d4 d8 | =B8 c4 d4- | d4 c4 _B4 A4 | G8 ^F8 | z4 G4 B4 G4- | G4 G4 F8 | D8 E8 | F8 G4 A4 | %217
w: * si- me|Je- su mi-|* se- re- re|me- i.|O dul- cis-|* si- me|Je- su|li- be- ra|
 B4 B8 A4 | G4 G4 G8 | (G8 B8) | A4 A4 d6 d2 | d4 _e4 d4 B4- | B4 A4 c8 | A4 B6 A2 G4- | %224
w: me. O pi-|is- si- me|Je- *|su, pro- pi- ti-|us e- sto mi-|* hi pec-|ca- to- * *|
 G2 ^FE F4 G8 | z4 D4 _E8 | D16 | z16 | z16 | z8 z4 B4 | G4 A4 (B6 AG | c8) z4 c4- | c4 B4 A8 | %233
w: * * * * ri.|O Je-|su,|||in|nu- me- rum _ _|_ e-|* le- cto-|
 F4 c4 c8 | A4 A4 B8 | A8 d8- | d4 A4 B4 d4- | (d2 cB c4) d4 d4- | (d2 c2 B8) A4 | B4 B4 (d6 c2 | %240
w: rum tu- o-|rum. O Je-|su, sa-|* lus in te|_ _ _ _ spe- ran-|* * * ti-|um. O Je- *|
 B2 A2 G4) F8- | F16- | F8 z4 B4- | B4 c4 d8 | A8 d4 B4 | A8 A8- | A4 B4 A4 A4 | d8 G4 G4 | A16 | %249
w: * * * su,|_|* spes|_ in te|cre- den- ti-|um mi-|* se- re- re|me- i. O|Je-|
 B8 B8 | B4 G4 B4 A4 | B4 d8 c4 | c4 d8 c4 | (B8 A8) | d8 z4 c4- | c4 (B6 AG A4) | ^c8 z4 d4 | %257
w: su dul-|cis, re- mis- si-|o o- mni-|um pec- ca-|to- *|rum me-|* o- * * *|rum. O|
 ^c8 d4 d4- | d4 d4 G4 A4 | c4 d4 d8 | (A4 G2 F2 c8) | F8 G4 A4 | B12 c4 | z4 G8 A4 | B8 c8- | %265
w: Je- su, fi-|* li Vir- gi-|nis Ma- ri-|ae, _ _ _|in- fun- de|in me|gra- ti-|am, sa-|
 c8 c8 | d4 A4 A4 A4 | ^F4 (G6 A2 B2 G2 | A8) B8 | A12 A4 | A8 =B8 | ^c8 d4 A4- | A4 F4 F8 | F16 | %274
w: * pi-|en- ti- am, ca-|ri- ta- * * *|* tem,|ca- sti-|ta- tem|et hu- mi-|* li- ta-|tem|
 z4 F4 (A6 G2 | F4) D4 A4 A4 | G4 F4 c8 | z4 A4 d8- | d4 c4 B8- | B4 A4 G4 d4- | d2 c2 c2 BA B8 | %281
w: ac e- *|* ti- am in|o- mni- bus|ad- ver-|* si- ta-|* ti- bus me-||
 A4 d8 c2 B2 | A12 G2 F2 | E4 F4 (G6 FE | D4) F4 G8 | G8 A8- | A8 z8 | z4 F4 (G6 A2 | %288
w: is pa- * *||* ti- en- * *|* ti- am|san- ctam,|_|per- fe- *|
 B4) A4 d4 c4- | (c2 B2 A8) G4 | A4 A4 A4 c4 | c4 d4 (B8 | c8) B4 B4 | _e4 d4 (c2 B2 A2 G2 | %294
w: * cte di- li-|* * * ge-|re et in te|glo- ri- a-|* ri ac|de- le- cta- * * *|
 A8) G8 | z4 F4 G4 B4 | A8 D4 d4 | _e4 d4 (c2 B2 A2 G2 | A8) G8 ||[M:3/1] G8 A12 G4 | A8 B12 B4 | %301
w: * ri,|ac de- le-|cta- ri, ac|de- le- cta- * * *|* ri,|in sae- cu-|la sae- cu-|
 G8 G16 | A8 B12 A4 | B8 c12 c4 | A8 A16 | =B8 c12 A4 | c8 d12 c4 | B8 A16 || %308
w: lo- rum,|in sae- cu-|la sae- cu-|lo- rum,|in sae- cu-|la sae- cu-|lo- rum.|
[M:4/2] G6 A2 B2 c2 d4- | d2 c2 B2 A2 G8 | G16- | G16 |] %312
w: A- * * * *||men.|_|
V:4
 G,16 | D,16 | (G,8 _E,8) | F,16 | B,,16 | D,8 A,,4 A,,4- | A,,4 A,,4 D,8 | B,8 A,8 | F,16 | %9
w: O|bo-|ne _|Je-|su,|O pi- is-|* si- me|Je- su,|O|
 C,8 G,,4 G,,4 | G,,8 C,8 | B,,16 | z16 | z16 | z16 | z16 | z8 D,8 | B,,4 B,,4 _E,4 E,4 | %18
w: dul- cis- si-|me Je-|su,|||||ple-|nus mi- se ri-|
 C,6 C,2 G,4 G,,4 | (D,6 C,B,, A,,4) B,,4 | F,8 G,6 F,E, | D,8 G,,8 | G,8 C,8- | C,8 G,,8 | %24
w: cor- di- a et|ve- * * * ri-|ta- * * *|* te,|O dul-|* cis|
 D,8 A,,8 | D,6 C,2 B,,2 A,,2 G,,2 A,,2 | B,,2 C,2 D,2 E,2 F,4 D,4 | G,4 G,4 _E,8 | %28
w: Je- su|mi- * * * * *|* * * * * se-|re- re me-|
 D,4 D,4 G,4 F,4 | B,8 _E,4 G,4 | D,4 F,4 C,4 D,4 | A,,4 (D,8 C,2 B,,2 | F,8) B,,8 | %33
w: i se- cun- dum|ma- gnam mi-|se- ri- cor- di-|am tu- * *|* am.|
 B,,8 C,4 D,4- | D,4 F,4 C,8 | G,,16 | z16 | z16 | z16 | z16 | z16 | z16 | z16 | z16 | z4 G,8 G,4 | %45
w: O be- ni-|* gne Je-|su|||||||||quam pro|
 _E,8 D,8 | C,6 C,2 B,,4 B,,4 | A,,4 B,,8 C,4 | A,,4 F,,4 B,,6 B,,2 | B,,4 D,4 G,,4 D,4 | %50
w: no- bis|mi- se- ris pec-|ca- to- ri-|bus ef- fun- de-|re di- gna- tus|
 C,8 z4 C,4 | F,4 D,4 A,8 | D,4 D,4 A,8 | G,4 F,4 _E,4 D,4- | (D,2 C,2 B,,2 A,,2 G,,4) G,,4 | %55
w: es in|a- ra cru-|cis ut ab-|ji- ci- as o-|* * * * * mnes|
 D,8 F,4 G,4 | =E,4 F,4 D,8- | D,8 G,,8 | z16 | z16 | z16 | z16 | z8 G,8 | F,4 (D,6 E,2 F,4) | %64
w: i- ni- qui-|ta- tes me-|* as,|||||et|hoc no- * *|
 E,4 F,4 (B,,2 C,2 D,2 E,2 | F,4) F,4 B,,6 B,,2 | F,4 _E,8 B,,4 | C,4 (G,,2 A,,2 B,,2 C,2 D,4) | %68
w: men tu- um _ _ _|_ san- ctis- si-|mum Je- sus|in- vo- * * * *|
 (_E,8 D,8) | C,8 z4 F,4 | E,4 F,4 C,8 | F,8 z4 B,,2 C,2 | D,2 E,2 F,2 G,2 A,4 D,4 | %73
w: can- *|tem, Hoc|no- men Je-|sus no- *|* * * * * men|
 (B,,4 A,,2 G,,2 D,4) D,4 | A,,16 | z16 | z4 C,8 A,,4 | D,4 D,4 (B,,6 A,,2 | G,,16) | F,,8 B,,8 | %80
w: dul- * * * ce|est,||no- men|sa- lu- ta- *||re est,|
 z4 B,,4 _E,8 | D,4 C,4 F,8- | F,8 _E,8 | G,8 D,4 A,,4 | C,16 | D,8 A,8 | G,4 C,4 F,8 | G,16 | %88
w: quid e-|nim est Je-|* sus|ni- si Sal-|va-|tor? O|bo- ne Je-|su,|
 z16 | z16 | z8 z4 A,,4 | B,,4 C,4 D,8 | G,,4 C,8 E,4 | F,6 F,2 F,4 B,,4- | B,,4 C,4 D,8- | %95
w: ||et|re- de- mi-|sti tu- o|pro- pri- o san-|* gui- ne,|
 D,8 z8 | z16 | z16 | z8 z4 D,4- | D,4 F,8 A,4- | A,2 D,2 D,4 F,4 D,4- | D,2 C,2 C,2 B,,A,, B,,8 | %102
w: _|||quem|_ ex ni-|* hi- lo cre- a-||
 A,,8 z8 | z8 z4 C,4 | D,8 C,8 | B,,8 z8 | z16 | _E,8 D,6 C,2 | D,2 B,,2 F,4 F,8 | B,,8 D,6 D,2 | %110
w: sti,|ne|per- dat|me||quem fe- *|* * * cit|o- mni- po-|
 A,,4 C,6 C,2 G,,4 | (B,,6 C,2 D,8) | G,8 C,8 | D,4 B,,4 _E,8 | D,8 G,8 | ^F,4 (G,6 A,2 B,4) | %116
w: tens bo- ni- tas|tu- * *|a. O|bo- ne Je-|su, re-|co- gno- * *|
 B,,4 G,,4 D,8 | A,,4 B,,4 F,8 | B,,8 z8 | z16 | z16 | z16 | z16 | z16 | z4 D,4 (F,6 E,2 | %125
w: sce quod tu-|um est in|me.||||||O bo- *|
 D,4) D,4 B,,8 | A,,16- | A,,8 z4 B,,4- | B,,4 C,4 G,,4 D,4 | _E,8 D,4 D,4 | C,4 F,4 B,,4 D,4- | %131
w: * ne Je-|su,|_ mi-|* se- re- re|me- i dum|tem- pus est mi-|
 D,4 F,4 G,8 | D,8 z4 G,,4 | _E,8 E,8 | G,12 G,4 | D,6 D,2 B,,4 B,,4 | G,,8 G,,8 | D,8 _E,6 E,2 | %138
w: * se- ren-|di, ne|per- das|me in|tem- po re tre-|men- di|ju- di- ci-|
 D,16 | D,16 | A,,16 |] z16 | z16 | z16 | z16 | z16 | z16 | z16 | z16 | z16 | z16 | z16 | z16 | %153
w: i|tu-|i.|||||||||||||
 z16 | z16 | z16 | z16 | z16 | z16 | z16 | z16 | z16 | z16 | z16 | z16 | z16 | z16 | z16 | z16 | %169
w: ||||||||||||||||
 z16 | z16 | z16 | z16 | z16 | z16 | z16 | z16 | z16 | z16 | z16 | z16 | z16 | z16 | z16 | z16 | %185
w: ||||||||||||||||
 z16 | z16 | z16 | z16 | z16 | z16 | z16 | z16 | z16 | z16 | z16 | z16 | z16 | z16 | z16 | z16 | %201
w: ||||||||||||||||
 z16 | z16 | z16 | z16 | z16 | z16 |] D,12 G,4 | ^F,4 G,4 C,4 B,,4- | B,,4 G,,4 D,8 | %210
w: ||||||O mi-|se- ri- cor- dis-|* si- me|
 G,8 F,4 B,4- | B,4 F,4 B,,4 F,,4 | C,8 D,8 | G,8 _E,4 E,4- | E,4 _E,4 B,,8 | B,,8 A,,8 | %216
w: Je- su mi-|* se- re- re|me- i.|O dul- cis-|* si- me|Je- su|
 D,8 C,4 F,4 | B,,8 D,8 | G,,4 G,,8 G,,4 | C,8 G,,8 | D,8 z4 D,4 | G,6 G,2 G,8 | D,8 C,4 F,4- | %223
w: li- be- ra|me. O|pi- is- si-|me Je-|su, pro-|pi- ti- us|e- sto mi-|
 F,4 B,,4 G,,4 B,,4 | A,,8 G,,8 | z4 G,,4 C,8 | G,,16 | z16 | z16 | z16 | z8 z4 G,4 | %231
w: * hi pec- ca-|to- ri.|O Je-|su,||||in|
 E,4 F,4 G,4 C,4 | F,4 (B,,2 C,2 D,2 E,2 F,4) | B,,4 F,,4 (C,8 | D,8) G,,4 G,4 | ^F,8 G,8 | %236
w: nu- me- rum e-|le- cto- * * * *|rum tu- o-|* rum. O|Je- su,|
 D,8 G,8 | _E,8 D,8 | G,8 F,6 F,2 | B,,16 | z8 B,,8 | (D,6 C,2 B,,2 A,,2 B,,4) | F,,8 z8 | z16 | %244
w: sa- lus|in te|spe- ran- ti-|um.|O|Je- * * * *|su,||
 z16 | z4 A,,8 A,,4 | D,8 D,8 | G,,8 C,4 C,4 | F,16 | B,,8 _E,8 | _E,8 z8 | z4 B,,8 F,4 | F,8 F,8 | %253
w: |mi- se-|re- re|me- i. O|Je-|su dul-|cis,|o- mni-|um pec-|
 D,8 D,8 | B,,8 C,8 | F,16 | A,,8 z4 D,4 | A,8 D,8 | G,8 =E,4 F,4- | F,4 D,4 B,,4 D,4 | (D,8 C,8) | %261
w: ca- to-|rum me-|o-|rum. O|Je- su,|fi- li Vir-|* gi- nis Ma-|ri- *|
 B,,8 z8 | z4 B,4 G,4 F,4 | (G,6 F,2 _E,4) D,4 | G,6 G,2 F,4 F,4 | E,4 F,2 G,2 A,2 G,2 F,2 E,2 | %266
w: ae,|in fun- de|in _ _ me|gra- ti- am, sa-|pi- en- * * * * *|
 D,4 ^C,4 D,8 | z16 | z8 z4 D,4- | D,4 D,4 F,8- | F,8 E,8 | A,8 D,8 | A,,4 D,4 B,,8 | B,,16 | z16 | %275
w: * ti- am,||ca-|* sti- ta-|* tem|et hu-|mi- li- ta-|tem||
 z16 | z16 | z16 | z16 | z16 | z16 | z8 F,8- | F,4 E,2 D,2 C,8- | C,4 B,,2 A,,2 G,,4 G,,4 | %284
w: ||||||pa-||* * * * ti-|
 B,,4 A,,4 G,,8 | _E,8 D,8- | D,8 z8 | z8 z4 _E,4 | (D,6 C,2 B,,4) A,,4 | C,8 B,,6 B,,2 | %290
w: en- ti- am|san- ctam,|_|per-|fe- * * cte|di- li- ge-|
 A,,4 A,,4 D,4 C,4 | F,4 D,4 (G,8 | F,8) B,,8 | z4 B,,4 C,4 _E,4 | D,8 G,,8 | z16 | z16 | %297
w: re et in te|glo- ri- a-|* ri|ac de- le-|cta- ri,|||
 z4 B,,4 C,4 _E,4 | D,8 G,,8 ||[M:3/1] C,8 F,12 G,4 | F,8 _E,12 B,,4 | C,8 G,,16 | D,8 G,12 A,4 | %303
w: ac de- le-|cta- ri|in sae- cu-|la sae- cu-|lo- rum,|in sae- cu-|
 G,8 F,12 C,4 | D,8 A,,16 | G,,8 C,12 D,4 | C,8 B,,12 F,,4 | G,,8 D,16 ||[M:4/2] G,,16- | G,,16 | %310
w: la sae- cu-|lo- rum,|in sae- cu-|la sae- cu-|lo- rum.|A-||
 G,,16- | G,,16 |] %312
w: men.|_|

